X:1
T: Mississippi Sawyer
O: RJ R-109
S: Roaring Jelly collection
M: C|
R: reel
K: D
fg |\
"D"a2af a2af | afa2 b2a2 | "G"g2ef g2ef | gfg2 a2g2 |
"D"f2fg fedc | defg a2ef | "A"gfed cABc |1 "D"d2f2 d2 :|2 "D"d2de d2 |]
|: fe |\
"D"d2fe d2fe | defg a4 | "A"e2c2 A2c2 | ABcd efec |
"D"d2fe d2fe | defg a2ef | "A"gfed cABc | "D"d2f2 d2 :|
